assets/toolkit/images/tips.svg

<svg xmlns="http://www.w3.org/2000/svg" viewBox="0 0 1039.1 34"><path class="st0" d="M1039.1 8.3V5.6H528.9L523.3 0l-5 5-5-5-5.6 5.6H0v2.7h507.6l3.7 3.7-3.1 3.1-5-5-5.6 5.6H0v2.7h497.6l5.6 5.6 5-5 3.1 3.1-3.7 3.7H0v2.7h507.6l5.6 5.6 5-5 5 5 5.6-5.6H1039v-2.7H528.9l-3.7-3.7 3.1-3.1 5 5 5.8-5.8H1039V16H539.2l-5.8-5.8-5 5-3.1-3.1 3.7-3.7 510.1-.1zm-519.3 5.2l-1.6 1.6-3.1-3.1 1.6-1.6 1.6-1.6 3.1 3.1-1.6 1.6zm1.6 8.5l-3.1 3.1-1.6-1.6-1.6-1.6 3.1-3.1 1.6 1.6 1.6 1.6zm-8.2-18.2l3.1 3.1-1.6 1.6-1.6 1.6L510 7l3.2-3.2zm-10 16.3l-3.1-3.1 3.1-3.1 3.1 3.1-3.1 3.1zm6.9-3.1l3.1-3.1 3.1 3.1-3.1 3.1-3.1-3.1zm0 10l3.1-3.1 1.6 1.6 1.6 1.6-3.1 3.1-3.2-3.2zm16.3 0l-3.1 3.1-3.1-3.1 3.1-3.1 3.1 3.1zm6.9-13.2l3.1 3.1-3.1 3.1-3.1-3.1 3.1-3.1zm-10 6.3l-1.6-1.6-1.6-1.6 1.6-1.6 1.6-1.6 3.1 3.1-3.1 3.3zm0-10L520.2 7l3.1-3.1 3.1 3.1-3.1 3.1z"/></svg>

<?xml version="1.0" encoding="utf-8"?>
<!-- Generator: Adobe Illustrator 21.1.0, SVG Export Plug-In . SVG Version: 6.00 Build 0)  -->
<svg version="1.1" xmlns="http://www.w3.org/2000/svg" xmlns:xlink="http://www.w3.org/1999/xlink" x="0px" y="0px"
	 viewBox="0 0 1039.1 34" xml:space="preserve">

	<path class="st0" d="M1039.1,8.3V5.6H528.9L523.3,0l-5,5l0,0l0,0l-5-5l-5.6,5.6H0v2.7h507.6l3.7,3.7l-3.1,3.1l-5-5l-5.6,5.6H0v2.7
		h497.6l5.6,5.6l5-5l3.1,3.1l-3.7,3.7H0v2.7h507.6l5.6,5.6l5-5l0,0l0,0l5,5l5.6-5.6h510.2v-2.7H528.9l-3.7-3.7l0,0l0,0l3.1-3.1l5,5
		l5.8-5.8h499.9v-2.2H539.2l-5.8-5.8l-5,5l-3.1-3.1l0,0l0,0l3.7-3.7L1039.1,8.3L1039.1,8.3z M519.8,13.5l-1.6,1.6l-3.1-3.1l1.6-1.6
		l1.6-1.6l3.1,3.1L519.8,13.5z M521.4,22l-3.1,3.1l-1.6-1.6l-1.6-1.6l3.1-3.1l1.6,1.6L521.4,22z M513.2,3.8l3.1,3.1l0,0l0,0
		l-1.6,1.6l-1.6,1.6l-3.1-3.1L513.2,3.8z M503.2,20.1l-3.1-3.1l3.1-3.1l3.1,3.1l0,0l0,0L503.2,20.1z M510.1,17l3.1-3.1l0,0l0,0
		l3.1,3.1l0,0l0,0l-3.1,3.1l0,0l0,0L510.1,17z M510.1,27l3.1-3.1l1.6,1.6l1.6,1.6l0,0l0,0l-3.1,3.1L510.1,27z M526.4,27l-3.1,3.1
		l-3.1-3.1l3.1-3.1L526.4,27z M533.3,13.8l3.1,3.1l-3.1,3.1l-3.1-3.1L533.3,13.8z M523.3,20.1L523.3,20.1L523.3,20.1l-1.6-1.6
		l-1.6-1.6l1.6-1.6l1.6-1.6l0,0l0,0l3.1,3.1L523.3,20.1z M523.3,10.1L520.2,7l3.1-3.1l3.1,3.1L523.3,10.1z"/>
</svg>
